X: 1
T: Xiǎo yàn zi
T: 小燕子
T: Little Swallow
O: China
S: http://dev.music.free.fr/web-music-tools/tests/$ABC_UI/texts.html
L: 1/8
M: 4/4
%
K: C
[|\ (EG) (cA) G4 | (EG) (Ac) G4 | c3 e d2 c2 | (dc) (Ac) G4 |
w: Xiǎo* yàn* zi, chuān* huā* y\=i ni\'an ni\'an ch\=un tiān l\'ai* zh\`e* lǐ
w: 小* 燕* 子, 穿* 花* 衣, 年 年 春 天 来* 这* 里，
%
   E3 G     A2  GA  | c2    (dG)    A4  | (ED)  C2 D4  |  D2    DE    G2     G2 |
w: wǒ w\`en yàn zi nǐ w\`ei  sh\'a* l\'ai yàn*  zi shu\=o zh\`e lǐ de ch\=un tiān
w: 我 问    燕  子 你 为     啥*    来    燕*   子 说     这    里 的 春     天
%
c2 (DE)  G4 || (EG) (cA) G4 | (EG) (Ac) G4 | c3 e d2 c2 |
w: zuì měi* lì. Xiǎo* yàn* zi gào* su* nǐ j\=in ni\'an zh\`e lǐ
w: 最 美* 丽。 小* 燕* 子， 告* 诉* 你 今 年 这 里
%
(dc) (Ac) G4 | E3 G A2 GA | c2 (dG) A4 | (E3 c) A2 G2 |
w: g\`eng* měi* lì wǒ men gài qǐ le dà g\=ong* chǎng zhuāng* shàng le
w: 更* 美* 丽 我 们 盖 起 了 大 工* 厂 装* 上 了
%
(ED) C2 D4 | D3 E G4 | (c3 e) (d2 c2) | dc (GA) c4 |]
w: x\=in* j\=i qi huān y\'ing nǐ ch\'ang* q\=i* zh\`u zài zh\`e* lǐ.
w: 新* 机 器. 欢 迎 你 长* 期* 住 在 这* 里.
